X: 639
T: Heel and Toe Polka
B: jims roots
M:4/4
L:1/8
Q: 1/4=100
K:G
V:1 
A^A | "G"BddA "C"ceed | "G"dggg bgbg | "D"d2ff afaf | "G"d2gg gage |
"G"B2d2 "C"c2e2 | "G"d2gg bgbg | "D"d2ff afaf | "G"dgga g2A^A ||
"G"B2d2 "C"c2e2 | "G"d2gg bgbg | "D"d2ff afaf | "G"d2gg gage |
"G"B2d2 "C"c2e2 | "G"d2gg bgbg | "D"d2ff afaf | "G"d2ga g2eg ||
"C"g2ee egge | "G"[D2d][D2B][D2B][DB]A | "D"c2A2 AAAc | "G"B2G2 G2ef |
"C"g2ee egge | "G"d2[D2B] [D2B][DB]A | "D"c2AA FDFD | "G"G2GG G2eg |
"C"g2ee egge | "G"d2[D2B] [D2B][DB]A | "D"c2A2 AAAc | "G"B2G2 G2eg |
"C"g2ee egge | "G"d2B2 B2BA | "D"cBAG FDFD | "G"G2GG [G4B] |]
% abcbook-tune_id 6298c25d0635ca01a2106dd8


% abcbook-boost 0
% abcbook-tablature 
% abcbook-transpose 
% abcbook-lastupdated 1654178398682
% abcbook-soundfonts 
% abcbook-repeats 1


